X: 85
T: Pollonesse #85
M: 3/4
L: 1/16
K: D
Q:120
G,2B,2 D4 F4|G2B2 A4 c4|d2e2 f2ef g2e2|e2d2 cdec A4|
G,2B,2 D4 F4|G2B2 A4 c4|d2e2 f2ef g2e2|e2c2 d4 D4:|
f4 d4 B2d2|cdec A4F4|G4 E4 G4|FGAF D4 G,4|
f4 d4 B2d2|cdec A4F4|G2E2 F2A2 d2f2|bgec d4 D4:|

